public/advantage-ssl.svg

<svg width="61" height="109" viewBox="0 0 61 109" fill="none" xmlns="http://www.w3.org/2000/svg">
<path fill-rule="evenodd" clip-rule="evenodd" d="M36.393 1.75598L6.66998 18.903C5.20349 19.8541 3.98447 21.1408 3.11365 22.6564C2.24283 24.172 1.74522 25.873 1.66199 27.619L1.621 101.498C1.78 103.028 1.80098 103.46 2.91498 104.371L4.66098 105.371C4.59898 105.016 4.57099 104.627 4.52899 104.188L4.54999 30.188C4.64483 28.17 5.21925 26.2035 6.22565 24.4518C7.23204 22.7 8.6414 21.2134 10.337 20.115L39.28 3.42102L36.394 1.75098L36.393 1.75598ZM6.92099 108.432C6.77677 108.431 6.63529 108.392 6.50998 108.321L1.98898 105.705C0.326983 104.349 0.166 103.41 0 101.574L0.0279846 27.574C0.123063 25.5561 0.697602 23.5899 1.70398 21.8384C2.71036 20.0868 4.11962 18.6003 5.815 17.502L35.976 0.101929C36.1034 0.029986 36.2472 -0.0078125 36.3935 -0.0078125C36.5398 -0.0078125 36.6836 0.029986 36.811 0.101929L41.332 2.71094C41.4532 2.78549 41.5533 2.88984 41.6227 3.01404C41.6921 3.13824 41.7285 3.27813 41.7285 3.42041C41.7285 3.56269 41.6921 3.7027 41.6227 3.8269C41.5533 3.95111 41.4532 4.05545 41.332 4.13L11.199 21.5129C9.73114 22.4617 8.51051 23.7466 7.63821 25.2611C6.76591 26.7756 6.26706 28.4762 6.18298 30.2219L6.16299 104.107C6.30099 105.638 6.351 106.068 7.436 106.98C7.60035 107.105 7.70912 107.289 7.73886 107.493C7.76861 107.697 7.71694 107.905 7.595 108.071C7.52012 108.181 7.41971 108.271 7.30234 108.334C7.18497 108.397 7.05413 108.431 6.92099 108.432Z" fill="#1B69FF"/>
<path fill-rule="evenodd" clip-rule="evenodd" d="M40.9143 4.37207L11.1993 21.5181C9.74831 22.4766 8.53986 23.7592 7.66937 25.2646C6.79888 26.7701 6.29017 28.4572 6.18335 30.193L6.16333 104.113C6.0992 104.642 6.17382 105.178 6.37985 105.669C6.58588 106.16 6.91623 106.589 7.33835 106.913C7.82731 107.119 8.36196 107.193 8.88858 107.128C9.4152 107.062 9.91522 106.858 10.3383 106.538L54.0003 81.364C55.4457 80.3988 56.6494 79.1137 57.5179 77.6083C58.3863 76.1028 58.8964 74.4174 59.0083 72.683L59.0293 14.8511L40.9153 4.37598L40.9143 4.37207ZM8.33234 108.8C7.69282 108.805 7.06358 108.639 6.50934 108.32C5.21534 107.576 4.52734 106.08 4.52734 104.112L4.54834 30.192C4.65835 28.1691 5.24411 26.2007 6.258 24.4468C7.27188 22.6929 8.68527 21.2029 10.3833 20.098L40.4963 2.71509C40.6238 2.64324 40.7676 2.60547 40.9138 2.60547C41.0601 2.60547 41.2039 2.64324 41.3313 2.71509L60.2513 13.6641C60.3773 13.7346 60.4822 13.8373 60.5555 13.9617C60.6287 14.0861 60.6677 14.2277 60.6683 14.3721L60.6473 72.672C60.5346 74.6949 59.9469 76.6629 58.9319 78.4164C57.917 80.1699 56.5033 81.6596 54.8053 82.765L11.1703 107.945C10.3149 108.471 9.33719 108.766 8.33334 108.8H8.33234Z" fill="#1B69FF"/>
<path fill-rule="evenodd" clip-rule="evenodd" d="M6.41345 25.9059L4.04443 24.5388L1.89243 23.2969C1.24635 24.6338 0.886672 26.0909 0.836426 27.5748L0.81543 101.495C0.97543 103.195 1.04543 103.888 2.40143 105L6.92343 107.616C5.56643 106.503 5.49743 105.808 5.33743 104.11L5.35843 30.1898C5.40867 28.704 5.768 27.2451 6.41345 25.9059Z" fill="#F2F5FC"/>
<path fill-rule="evenodd" clip-rule="evenodd" d="M2.28799 24.4615C1.89733 25.467 1.68547 26.5331 1.66199 27.6116L1.621 101.491C1.78 103.021 1.80098 103.452 2.91498 104.364L4.66098 105.364C4.59898 105.009 4.57099 104.62 4.52899 104.181L4.54999 30.1805C4.59611 28.8302 4.87628 27.4981 5.37799 26.2435L2.28998 24.4555L2.28799 24.4615ZM6.92099 108.426C6.77677 108.424 6.63529 108.386 6.50998 108.315L1.98898 105.699C0.326983 104.343 0.166 103.403 0 101.567L0.0279846 27.5675C0.0649066 25.9599 0.449391 24.3795 1.155 22.9346C1.20214 22.8337 1.26981 22.7438 1.35367 22.6706C1.43752 22.5975 1.53573 22.5426 1.642 22.5095C1.74846 22.4735 1.86147 22.4612 1.97321 22.4732C2.08494 22.4853 2.19271 22.5216 2.289 22.5796L6.81 25.1946C6.98971 25.295 7.12512 25.4593 7.18939 25.6549C7.25366 25.8505 7.24208 26.063 7.15698 26.2505C6.54386 27.4845 6.21125 28.8389 6.18298 30.2165L6.16299 104.103C6.30099 105.633 6.351 106.064 7.436 106.976C7.60035 107.1 7.70912 107.284 7.73886 107.489C7.76861 107.693 7.71694 107.9 7.595 108.067C7.52052 108.177 7.42026 108.268 7.30286 108.332C7.18545 108.395 7.05441 108.429 6.92099 108.431V108.426Z" fill="#1B69FF"/>
<path d="M48.0926 58.128C47.8526 58.2953 47.6545 58.5157 47.5136 58.7721C47.3728 59.0284 47.2931 59.3138 47.2806 59.6061V73.3611L14.5986 92.9441V53.8621C14.5986 53.3151 14.2346 53.0891 13.7866 53.3621C13.5466 53.5293 13.3485 53.7497 13.2076 54.0061C13.0668 54.2625 12.9871 54.5478 12.9746 54.8401V94.9131C12.9746 95.4611 13.3386 95.6871 13.7866 95.4131L48.0926 74.8561C48.3326 74.6888 48.5307 74.4685 48.6716 74.2121C48.8124 73.9558 48.8922 73.6703 48.9046 73.378V58.6321C48.9046 58.0901 48.5406 57.863 48.0926 58.128Z" fill="#1B69FF"/>
<path d="M56.111 28.9957C55.9748 28.8487 55.8727 28.6735 55.8122 28.4825C55.7517 28.2914 55.7342 28.0893 55.761 27.8907C55.829 26.0197 54.839 24.9398 53.392 25.3298C53.2307 25.386 53.056 25.3909 52.8918 25.3438C52.7276 25.2967 52.582 25.1999 52.4751 25.0667C51.6751 24.0477 50.184 24.3497 48.904 25.5787V15.8857C48.904 15.3377 48.54 15.1127 48.092 15.3857L22.413 30.7728C22.1707 30.932 21.9731 31.1506 21.839 31.4078C12.621 48.1858 13.145 47.1878 13.051 47.4858C12.841 48.1588 13.075 48.6647 13.551 48.5577C13.729 48.5157 13.259 48.7747 22.414 43.2897C22.654 43.1225 22.8522 42.902 22.993 42.6457C23.1338 42.3893 23.2136 42.1039 23.226 41.8117V37.8627C23.226 37.3157 22.862 37.0887 22.414 37.3627C22.1741 37.5299 21.9759 37.7503 21.8351 38.0066C21.6942 38.263 21.6145 38.5485 21.602 38.8407V41.7988L15.747 45.3067L22.747 32.5597L47.278 17.8597V26.5757C45.978 26.8697 44.4911 28.3527 43.6861 30.3167C43.4801 30.8427 43.1632 31.3182 42.757 31.7107C42.0253 32.41 41.4392 33.2471 41.0325 34.1739C40.6257 35.1007 40.4064 36.0988 40.387 37.1108C40.3878 37.6195 40.2751 38.122 40.0571 38.5817L40.004 38.7077C39.097 40.6757 39.104 42.7077 40.037 43.5577C40.1663 43.6999 40.2643 43.8676 40.3249 44.05C40.3856 44.2323 40.4074 44.4254 40.3891 44.6167C40.2751 46.4017 41.229 47.6357 42.7551 47.2267C42.9161 47.1697 43.0909 47.1643 43.2552 47.2115C43.4194 47.2586 43.5648 47.3559 43.671 47.4897C44.266 48.2457 45.271 48.3087 46.362 47.6557C47.262 47.1137 47.503 46.5887 48.071 46.2487C48.639 45.9087 48.8711 46.1487 49.7811 45.6067C50.5405 45.1217 51.1862 44.4784 51.674 43.7207V51.5097L48.49 51.5767C48.305 51.5557 48.027 51.6467 47.646 52.0867C47.546 52.1997 45.721 54.3537 44.468 55.8257V51.5077C44.468 50.9597 44.1041 50.7347 43.6561 51.0077C43.4161 51.175 43.2179 51.3953 43.0771 51.6517C42.9362 51.908 42.8565 52.1935 42.844 52.4858V58.3677C42.844 59.0937 43.464 59.2027 44.002 58.5677C45.965 56.2677 47.9631 53.9077 48.0701 53.7817L52.138 53.6957C52.675 53.6847 53.297 52.8327 53.297 52.1047V40.9467C53.327 40.9167 53.357 40.8857 53.387 40.8577C54.1209 40.1557 54.7083 39.3151 55.1151 38.3846C55.5219 37.454 55.7401 36.4521 55.757 35.4367C55.7546 34.9162 55.8745 34.4024 56.107 33.9367C57.052 31.9287 57.052 29.8587 56.111 28.9957ZM47.602 53.7537C47.537 53.7327 47.539 53.7347 47.602 53.7537V53.7537Z" fill="#1B69FF"/>
<path d="M21.5516 82.213L18.4517 84.068C18.2117 84.2352 18.0135 84.4557 17.8727 84.712C17.7318 84.9684 17.6521 85.2538 17.6396 85.546C17.6396 86.094 18.0037 86.32 18.4517 86.051L21.5516 84.197C22.4675 83.56 23.2238 82.72 23.7615 81.7425C24.2992 80.7651 24.6039 79.6766 24.6516 78.562C24.6516 76.478 23.2626 75.614 21.5516 76.637L20.7397 77.124C19.9277 77.61 19.2676 77.2 19.2676 76.209C19.2902 75.6794 19.4347 75.1622 19.6901 74.6976C19.9454 74.2331 20.3046 73.8338 20.7397 73.531L23.8397 71.676C24.0796 71.5088 24.2778 71.2883 24.4186 71.032C24.5595 70.7756 24.6392 70.4902 24.6516 70.198C24.6516 69.651 24.2877 69.425 23.8397 69.698L20.7397 71.553C19.8237 72.1898 19.0673 73.0298 18.5295 74.0073C17.9918 74.9848 17.6872 76.0733 17.6396 77.188C17.6396 79.271 19.0287 80.1351 20.7397 79.1121L21.5516 78.626C22.3626 78.139 23.0237 78.55 23.0237 79.541C23.0002 80.0696 22.8552 80.5856 22.5999 81.0491C22.3446 81.5125 21.9859 81.9108 21.5516 82.213Z" fill="#1B69FF"/>
<path d="M31.0917 76.4993L27.9917 78.3542C27.7517 78.5215 27.5536 78.7418 27.4127 78.9982C27.2719 79.2545 27.1921 79.54 27.1797 79.8323C27.1797 80.3803 27.5437 80.6053 27.9927 80.3323L31.0927 78.4772C32.0086 77.8404 32.765 77.0007 33.3027 76.0234C33.8405 75.0461 34.1451 73.9577 34.1927 72.8433C34.1927 70.7593 32.8047 69.8952 31.0927 70.9182L30.2807 71.4053C29.4697 71.8913 28.8087 71.4812 28.8087 70.4902C28.8313 69.9607 28.976 69.4435 29.2313 68.979C29.4866 68.5145 29.8457 68.1152 30.2807 67.8122L33.3807 65.9573C33.6207 65.79 33.8188 65.5696 33.9597 65.3132C34.1005 65.0569 34.1802 64.7715 34.1927 64.4792C34.1927 63.9322 33.8287 63.7062 33.3807 63.9792L30.2807 65.8342C29.3647 66.4711 28.6083 67.3111 28.0705 68.2886C27.5328 69.2661 27.2283 70.3546 27.1807 71.4692C27.1807 73.5522 28.5697 74.4162 30.2807 73.3932L31.0927 72.9062C31.9037 72.4202 32.5647 72.8302 32.5647 73.8212C32.5419 74.3508 32.3971 74.8681 32.1416 75.3326C31.8861 75.7971 31.5268 76.1964 31.0917 76.4993Z" fill="#1B69FF"/>
<path d="M37.8432 61.3012C37.6032 61.4685 37.4051 61.6888 37.2643 61.9452C37.1234 62.2015 37.0437 62.4869 37.0312 62.7791V73.9322C37.0312 74.4792 37.3952 74.7062 37.8442 74.4322L41.9543 71.9692C42.1944 71.8019 42.3926 71.5813 42.5334 71.3248C42.6743 71.0682 42.7539 70.7826 42.7662 70.4902C42.7662 69.9432 42.4023 69.7172 41.9543 69.9902L38.6542 71.9672V61.8062C38.6542 61.2562 38.2882 61.0322 37.8432 61.3012Z" fill="#1B69FF"/>
</svg>

<svg xmlns="http://www.w3.org/2000/svg" width="61" height="109" fill="none" viewBox="0 0 61 109"><path fill="#1b69ff" fill-rule="evenodd" d="M36.393 1.756 6.67 18.903a11.01 11.01 0 0 0-5.008 8.716l-.041 73.879c.159 1.53.18 1.962 1.294 2.873l1.746 1c-.062-.355-.09-.744-.132-1.183l.021-74a12.71 12.71 0 0 1 5.787-10.073L39.28 3.421l-2.886-1.67zM6.921 108.432a.85.85 0 0 1-.411-.111l-4.521-2.616C.327 104.349.166 103.41 0 101.574l.028-74a12.71 12.71 0 0 1 5.787-10.072L35.976.102a.85.85 0 0 1 .835 0l4.521 2.609a.833.833 0 0 1 0 1.419L11.199 21.513a11 11 0 0 0-5.016 8.709l-.02 73.885c.138 1.531.188 1.961 1.273 2.873a.787.787 0 0 1 .159 1.091.83.83 0 0 1-.674.361" clip-rule="evenodd"/><path fill="#1b69ff" fill-rule="evenodd" d="M40.914 4.372 11.2 21.518a11.22 11.22 0 0 0-5.016 8.675l-.02 73.92a3.07 3.07 0 0 0 1.175 2.8 3.029 3.029 0 0 0 3-.375L54 81.364a11.32 11.32 0 0 0 5.008-8.681l.021-57.832L40.915 4.376zM8.332 108.8a3.6 3.6 0 0 1-1.823-.48c-1.294-.744-1.982-2.24-1.982-4.208l.021-73.92a12.88 12.88 0 0 1 5.835-10.094L40.496 2.715a.85.85 0 0 1 .835 0l18.92 10.95a.82.82 0 0 1 .417.707l-.02 58.3a12.9 12.9 0 0 1-5.843 10.093l-43.635 25.18a5.8 5.8 0 0 1-2.837.855" clip-rule="evenodd"/><path fill="#f2f5fc" fill-rule="evenodd" d="m6.413 25.906-2.369-1.367-2.152-1.242a10.7 10.7 0 0 0-1.056 4.278l-.02 73.92c.16 1.7.23 2.393 1.585 3.505l4.522 2.616c-1.357-1.113-1.426-1.808-1.586-3.506l.021-73.92a10.7 10.7 0 0 1 1.055-4.284" clip-rule="evenodd"/><path fill="#1b69ff" fill-rule="evenodd" d="M2.288 24.462a9.3 9.3 0 0 0-.626 3.15l-.041 73.879c.159 1.53.18 1.961 1.294 2.873l1.746 1c-.062-.355-.09-.744-.132-1.183l.021-74c.046-1.35.326-2.683.828-3.937L2.29 24.456zm4.633 83.964a.86.86 0 0 1-.411-.111l-4.521-2.616C.327 104.343.166 103.403 0 101.567l.028-74a11.1 11.1 0 0 1 1.127-4.632.8.8 0 0 1 .487-.425.78.78 0 0 1 .647.07l4.521 2.615a.82.82 0 0 1 .347 1.055 9.34 9.34 0 0 0-.974 3.967l-.02 73.886c.138 1.53.188 1.961 1.273 2.873a.78.78 0 0 1 .159 1.091.834.834 0 0 1-.674.364z" clip-rule="evenodd"/><path fill="#1b69ff" d="M48.093 58.128a1.9 1.9 0 0 0-.812 1.478v13.755L14.599 92.944V53.862c0-.547-.364-.773-.812-.5a1.9 1.9 0 0 0-.812 1.478v40.073c0 .548.364.774.812.5l34.306-20.557a1.9 1.9 0 0 0 .812-1.478V58.632c0-.542-.364-.769-.812-.504"/><path fill="#1b69ff" d="M56.111 28.996a1.36 1.36 0 0 1-.35-1.105c.068-1.871-.922-2.951-2.369-2.561a.83.83 0 0 1-.917-.263c-.8-1.02-2.291-.717-3.571.512v-9.693c0-.548-.364-.773-.812-.5L22.413 30.773a1.7 1.7 0 0 0-.574.635c-9.218 16.778-8.694 15.78-8.788 16.078-.21.673.024 1.179.5 1.072.178-.042-.292.217 8.863-5.268a1.9 1.9 0 0 0 .812-1.478v-3.95c0-.546-.364-.773-.812-.5a1.9 1.9 0 0 0-.812 1.479v2.958l-5.855 3.508 7-12.747 24.531-14.7v8.716c-1.3.294-2.787 1.777-3.592 3.74a3.9 3.9 0 0 1-.929 1.395 7.67 7.67 0 0 0-2.37 5.4 3.4 3.4 0 0 1-.33 1.47l-.053.127c-.907 1.968-.9 4 .033 4.85a1.38 1.38 0 0 1 .352 1.059c-.114 1.785.84 3.019 2.366 2.61a.82.82 0 0 1 .916.263c.595.756 1.6.819 2.691.166.9-.542 1.141-1.067 1.709-1.407s.8-.1 1.71-.642a6.26 6.26 0 0 0 1.893-1.886v7.789l-3.184.067c-.185-.021-.463.07-.844.51-.1.113-1.925 2.267-3.178 3.739v-4.318c0-.548-.364-.773-.812-.5a1.9 1.9 0 0 0-.812 1.478v5.882c0 .726.62.835 1.158.2 1.963-2.3 3.961-4.66 4.068-4.786l4.068-.086c.537-.011 1.159-.863 1.159-1.591V40.947l.09-.09a7.68 7.68 0 0 0 2.37-5.42 3.3 3.3 0 0 1 .35-1.5c.945-2.008.945-4.078.004-4.941m-8.509 24.758q-.096-.03 0 0M21.552 82.213l-3.1 1.855a1.9 1.9 0 0 0-.812 1.478c0 .548.364.774.812.505l3.1-1.854a7.24 7.24 0 0 0 3.1-5.635c0-2.084-1.39-2.948-3.1-1.925l-.812.487c-.812.486-1.472.076-1.472-.915a3.44 3.44 0 0 1 1.472-2.678l3.1-1.855a1.9 1.9 0 0 0 .812-1.478c0-.547-.364-.773-.812-.5l-3.1 1.855a7.24 7.24 0 0 0-3.1 5.635c0 2.083 1.389 2.947 3.1 1.924l.812-.486c.81-.487 1.472-.076 1.472.915a3.44 3.44 0 0 1-1.472 2.672M31.092 76.5l-3.1 1.854a1.9 1.9 0 0 0-.812 1.478c0 .548.364.773.813.5l3.1-1.855a7.24 7.24 0 0 0 3.1-5.634c0-2.084-1.388-2.948-3.1-1.925l-.812.487c-.811.486-1.472.076-1.472-.915a3.44 3.44 0 0 1 1.472-2.678l3.1-1.855a1.9 1.9 0 0 0 .812-1.478c0-.547-.364-.773-.812-.5l-3.1 1.855a7.24 7.24 0 0 0-3.1 5.635c0 2.083 1.389 2.947 3.1 1.924l.812-.487c.81-.486 1.472-.076 1.472.915a3.44 3.44 0 0 1-1.473 2.678M37.843 61.301a1.9 1.9 0 0 0-.812 1.478v11.153c0 .547.364.774.813.5l4.11-2.463a1.9 1.9 0 0 0 .812-1.479c0-.547-.364-.773-.812-.5l-3.3 1.977v-10.16c0-.55-.366-.775-.81-.506"/></svg>
